X: 114
T:Le Marronnier
M:4/4
L:1/8
C:Gilles Chabenat
R:Schottische
Z:Steve Mansfield
K:Dm
ABAG A2BA | G2FE E2D2 | DEFG A2GA | d2c2 A4 | ABAG A2BA | G2FE E2D2 |
DEFG A2GF | E2FE D4:: [K:D] FGAF D2dc | BAGF EFGE | EFGE A2GF |
EDDE F4 | FGAF D2dc | BAGF EFGE | EFGE A2GF | EDDE D4 :|
<end>
<start>
